X: 40024
T: Three Sisters, The
R: reel
M: 4/4
K: Eminor
EBBE cEBG|EBBA AGGF|EBBE cEBE|BBGB FGGG|
EBBE cEBG|EBBG AGFD|BBGz AGGF|1 EGFD EEEG:|2 EGFD EEEg||
ezgg eggg|fffz aggf|e2gg eggg|fdaf gfed
ezgg eBeg|fffz aggg|baga agaa|1 egfd eeeg:|2 egfd e3B||

